austria/municipalities/70613.svg

<?xml version="1.0" encoding="UTF-8"?>
<!DOCTYPE svg PUBLIC "-//W3C//DTD SVG 1.1//EN" "http://www.w3.org/Graphics/SVG/1.1/DTD/svg11.dtd">
<svg xmlns="http://www.w3.org/2000/svg" version="1.1" width="166px" height="192px" style="shape-rendering:geometricPrecision; text-rendering:geometricPrecision; image-rendering:optimizeQuality; fill-rule:evenodd; clip-rule:evenodd" xmlns:xlink="http://www.w3.org/1999/xlink">
<g><path style="opacity:1" fill="#0e0c0a" d="M -0.5,-0.5 C 54.8333,-0.5 110.167,-0.5 165.5,-0.5C 165.5,39.5 165.5,79.5 165.5,119.5C 157.038,159.629 132.705,183.629 92.5,191.5C 85.5,191.5 78.5,191.5 71.5,191.5C 30.9171,182.918 6.91707,158.251 -0.5,117.5C -0.5,78.1667 -0.5,38.8333 -0.5,-0.5 Z"/></g>
<g><path style="opacity:1" fill="#243165" d="M 3.5,3.5 C 29.8333,3.5 56.1667,3.5 82.5,3.5C 82.5,30.5 82.5,57.5 82.5,84.5C 56.1667,84.5 29.8333,84.5 3.5,84.5C 3.5,57.5 3.5,30.5 3.5,3.5 Z"/></g>
<g><path style="opacity:1" fill="#e7a61b" d="M 83.5,3.5 C 109.5,3.5 135.5,3.5 161.5,3.5C 161.5,30.5 161.5,57.5 161.5,84.5C 135.5,84.5 109.5,84.5 83.5,84.5C 83.5,57.5 83.5,30.5 83.5,3.5 Z"/></g>
<g><path style="opacity:1" fill="#100d0b" d="M 41.5,8.5 C 42.4972,8.47008 43.1639,8.97008 43.5,10C 45.0714,14.2162 46.7381,18.3828 48.5,22.5C 50.8302,20.4251 51.9968,17.7585 52,14.5C 53.5088,12.0807 55.6755,11.0807 58.5,11.5C 58.3484,16.2874 59.015,20.9541 60.5,25.5C 63.3821,23.8921 66.3821,22.5587 69.5,21.5C 69.8333,22 70.1667,22.5 70.5,23C 68.5072,26.6508 66.5072,30.3175 64.5,34C 67.5638,34.1488 70.5638,33.6488 73.5,32.5C 80.3092,34.1762 80.6425,36.0095 74.5,38C 72.8745,40.6277 70.8745,42.961 68.5,45C 71.8333,47 75.1667,49 78.5,51C 74.1581,51.9882 69.8248,53.1549 65.5,54.5C 67.1184,56.316 69.1184,57.6493 71.5,58.5C 72.6517,61.1062 72.8184,63.7728 72,66.5C 68.9247,64.1735 65.4247,62.8402 61.5,62.5C 61.1918,67.217 61.1918,71.8837 61.5,76.5C 57.8145,72.9801 53.9812,69.6468 50,66.5C 50.3201,69.4601 50.3201,72.4601 50,75.5C 49.3678,77.9647 47.8678,79.6314 45.5,80.5C 43.2068,76.3729 40.7068,72.3729 38,68.5C 34.6667,71.8333 31.3333,75.1667 28,78.5C 28.082,73.5055 28.082,68.5055 28,63.5C 25.1248,68.2218 20.9582,70.5551 15.5,70.5C 16.9635,66.1128 18.6302,61.7794 20.5,57.5C 16.2569,57.3468 11.9236,57.1801 7.5,57C 11.8333,53.3333 16.1667,49.6667 20.5,46C 16.3614,45.0877 12.3614,43.7544 8.5,42C 7.13865,40.4157 6.47199,38.5824 6.5,36.5C 11.635,37.946 16.3017,36.946 20.5,33.5C 18.1667,29.5 15.8333,25.5 13.5,21.5C 13.8333,21.1667 14.1667,20.8333 14.5,20.5C 18.9926,22.579 23.326,24.9123 27.5,27.5C 27.8333,27 28.1667,26.5 28.5,26C 26.3893,23.0059 25.0559,19.6725 24.5,16C 24.6583,13.8507 25.4916,12.0174 27,10.5C 28.1217,12.6238 29.6217,14.4571 31.5,16C 34.196,16.6898 36.3626,18.1898 38,20.5C 39.4789,16.5834 40.6455,12.5834 41.5,8.5 Z"/></g>
<g><path style="opacity:1" fill="#e4a31c" d="M 41.5,13.5 C 44.4494,16.41 46.1161,20.0767 46.5,24.5C 51.4669,23.6807 53.6335,20.6807 53,15.5C 53.6891,14.6433 54.5224,13.9767 55.5,13.5C 57.4904,18.0777 57.8237,22.7444 56.5,27.5C 59.8395,27.3957 63.1729,26.3957 66.5,24.5C 66.8333,24.8333 67.1667,25.1667 67.5,25.5C 65.0101,28.8117 63.3434,32.4784 62.5,36.5C 66.6767,36.829 70.51,35.829 74,33.5C 75.0588,33.6301 75.8921,34.1301 76.5,35C 73.5,36.6667 71.1667,39 69.5,42C 67.913,42.8624 66.2464,43.5291 64.5,44C 67.5,46.1667 70.5,48.3333 73.5,50.5C 59.9567,50.4487 59.1233,53.7821 71,60.5C 71.6667,61.5 71.6667,62.5 71,63.5C 66.7097,62.4482 62.7097,60.7815 59,58.5C 58.7087,63.1893 58.7087,67.856 59,72.5C 55.9845,69.3172 52.8178,66.3172 49.5,63.5C 48.3036,64.5594 47.637,65.8927 47.5,67.5C 49.2734,71.5844 48.7734,75.251 46,78.5C 42.7894,74.7455 40.6227,70.4122 39.5,65.5C 36.1822,68.3172 33.0155,71.3172 30,74.5C 30.077,70.1951 30.2437,65.8618 30.5,61.5C 26.6461,61.5945 23.9794,63.4278 22.5,67C 20.9556,68.1871 19.2889,68.5205 17.5,68C 19.0352,65.3761 20.2018,62.5428 21,59.5C 22.353,58.3147 23.5197,56.9814 24.5,55.5C 20.5471,54.9854 16.5471,54.8187 12.5,55C 16.1317,52.3702 19.465,49.3702 22.5,46C 19.3893,43.3049 15.7227,41.9716 11.5,42C 10.1667,41.3333 9.16667,40.3333 8.5,39C 13.6441,38.4265 18.6441,37.2599 23.5,35.5C 21.6999,31.8713 19.6999,28.3713 17.5,25C 17.8333,24.8333 18.1667,24.6667 18.5,24.5C 21.9902,26.683 25.6569,28.3496 29.5,29.5C 28.8676,24.4119 28.0343,19.4119 27,14.5C 29.0305,16.7375 31.5305,18.2375 34.5,19C 35.7256,20.6349 37.059,22.1349 38.5,23.5C 40.3089,20.4069 41.3089,17.0736 41.5,13.5 Z"/></g>
<g><path style="opacity:1" fill="#e5a41c" d="M 3.5,85.5 C 29.741,85.1719 55.9076,85.5052 82,86.5C 82.5,120.165 82.6667,153.832 82.5,187.5C 41.1529,184.989 15.3195,163.655 5,123.5C 3.65183,110.875 3.15183,98.2086 3.5,85.5 Z"/></g>
<g><path style="opacity:1" fill="#243165" d="M 83.5,85.5 C 109.5,85.5 135.5,85.5 161.5,85.5C 165.109,111.22 159.942,134.887 146,156.5C 129.942,176.279 109.108,186.612 83.5,187.5C 83.5,153.5 83.5,119.5 83.5,85.5 Z"/></g>
<g><path style="opacity:1" fill="#fdfdfd" d="M -0.5,117.5 C 6.91707,158.251 30.9171,182.918 71.5,191.5C 47.5,191.5 23.5,191.5 -0.5,191.5C -0.5,166.833 -0.5,142.167 -0.5,117.5 Z"/></g>
<g><path style="opacity:1" fill="#fdfdfd" d="M 165.5,119.5 C 165.5,143.5 165.5,167.5 165.5,191.5C 141.167,191.5 116.833,191.5 92.5,191.5C 132.705,183.629 157.038,159.629 165.5,119.5 Z"/></g>
<g><path style="opacity:1" fill="#0d0a07" d="M 97.5,93.5 C 105.507,101.341 113.674,109.008 122,116.5C 130.291,109.21 138.291,101.544 146,93.5C 150.348,98.0153 154.848,102.349 159.5,106.5C 156.85,109.651 154.016,112.651 151,115.5C 150.562,112.624 149.562,109.957 148,107.5C 147.282,106.549 146.449,106.383 145.5,107C 139.468,112.698 133.801,118.698 128.5,125C 131.667,128.167 134.833,131.333 138,134.5C 140.238,132.691 141.405,130.358 141.5,127.5C 144.996,129.313 147.996,131.98 150.5,135.5C 148.013,136.576 145.68,137.91 143.5,139.5C 145.607,141.727 147.94,143.727 150.5,145.5C 147.192,148.471 143.859,151.471 140.5,154.5C 139.052,152.333 137.885,150 137,147.5C 135.585,149.961 134.085,152.294 132.5,154.5C 129.139,152.105 126.472,149.105 124.5,145.5C 126.5,144.167 128.5,142.833 130.5,141.5C 127.85,138.349 125.016,135.349 122,132.5C 118.984,135.349 116.15,138.349 113.5,141.5C 115.5,142.833 117.5,144.167 119.5,145.5C 117.547,149.12 114.881,152.12 111.5,154.5C 109.915,152.294 108.415,149.961 107,147.5C 106.069,149.459 105.236,151.459 104.5,153.5C 103.998,154.521 103.332,154.688 102.5,154C 99.6247,150.956 96.6247,148.123 93.5,145.5C 96.4323,144.2 98.7656,142.2 100.5,139.5C 98.3203,137.91 95.987,136.576 93.5,135.5C 95.9609,132.028 98.9609,129.361 102.5,127.5C 102.595,130.358 103.762,132.691 106,134.5C 109.167,131.333 112.333,128.167 115.5,125C 110.199,118.698 104.532,112.698 98.5,107C 97.5509,106.383 96.7175,106.549 96,107.5C 94.4379,109.957 93.4379,112.624 93,115.5C 90.1667,112.667 87.3333,109.833 84.5,107C 89.0367,102.631 93.3701,98.1312 97.5,93.5 Z"/></g>
<g><path style="opacity:1" fill="#e0a01d" d="M 97.5,95.5 C 105.798,103.298 113.965,111.298 122,119.5C 130,111.5 138,103.5 146,95.5C 149.833,99.3333 153.667,103.167 157.5,107C 155.667,108.833 153.833,110.667 152,112.5C 151.447,108.296 149.28,105.796 145.5,105C 138.985,111.348 132.652,117.848 126.5,124.5C 130.151,128.652 133.984,132.652 138,136.5C 140.057,134.731 141.89,132.731 143.5,130.5C 145.316,131.815 146.983,133.315 148.5,135C 139.634,137.752 139.301,141.252 147.5,145.5C 145.778,148.42 143.445,150.253 140.5,151C 139.458,149.082 138.292,147.249 137,145.5C 134.957,147.208 133.29,149.208 132,151.5C 130.167,149.667 128.333,147.833 126.5,146C 129.076,145.218 131.076,143.718 132.5,141.5C 129.439,137.347 125.939,133.68 122,130.5C 118.386,133.95 114.886,137.617 111.5,141.5C 112.924,143.718 114.924,145.218 117.5,146C 115.667,147.833 113.833,149.667 112,151.5C 110.71,149.208 109.043,147.208 107,145.5C 105.692,147.641 104.192,149.641 102.5,151.5C 100.167,149.833 98.1667,147.833 96.5,145.5C 99.0599,143.727 101.393,141.727 103.5,139.5C 101.287,137.226 98.6207,135.726 95.5,135C 97.3333,133.167 99.1667,131.333 101,129.5C 101.878,132.215 103.378,134.549 105.5,136.5C 109.833,132.833 113.833,128.833 117.5,124.5C 111.348,117.848 105.015,111.348 98.5,105C 94.7201,105.796 92.5534,108.296 92,112.5C 90.1667,110.667 88.3333,108.833 86.5,107C 90.3705,103.298 94.0371,99.4643 97.5,95.5 Z"/></g>
</svg>

<svg xmlns="http://www.w3.org/2000/svg" width="166" height="192" style="shape-rendering:geometricPrecision;text-rendering:geometricPrecision;image-rendering:optimizeQuality;fill-rule:evenodd;clip-rule:evenodd"><path style="opacity:1" fill="#0e0c0a" d="M-.5-.5h166v120c-8.462 40.129-32.795 64.129-73 72h-21c-40.583-8.582-64.583-33.249-72-74V-.5z"/><path style="opacity:1" fill="#243165" d="M3.5 3.5h79v81h-79v-81z"/><path style="opacity:1" fill="#e7a61b" d="M83.5 3.5h78v81h-78v-81z"/><path style="opacity:1" fill="#100d0b" d="M41.5 8.5c.997-.03 1.664.47 2 1.5a282.833 282.833 0 0 0 5 12.5c2.33-2.075 3.497-4.741 3.5-8 1.509-2.42 3.675-3.42 6.5-3a40.61 40.61 0 0 0 2 14 54.214 54.214 0 0 1 9-4l1 1.5c-1.993 3.65-3.993 7.317-6 11 3.064.149 6.064-.351 9-1.5 6.81 1.676 7.142 3.51 1 5.5a29.946 29.946 0 0 1-6 7l10 6a173.14 173.14 0 0 0-13 3.5c1.618 1.816 3.618 3.15 6 4 1.152 2.606 1.318 5.273.5 8-3.075-2.326-6.575-3.66-10.5-4a106.104 106.104 0 0 0 0 14 162.874 162.874 0 0 0-11.5-10c.32 2.96.32 5.96 0 9-.632 2.465-2.132 4.131-4.5 5a137.59 137.59 0 0 0-7.5-12l-10 10c.082-4.995.082-9.995 0-15-2.875 4.722-7.042 7.055-12.5 7 1.463-4.387 3.13-8.72 5-13-4.243-.153-8.576-.32-13-.5l13-11a60.325 60.325 0 0 1-12-4c-1.361-1.584-2.028-3.418-2-5.5 5.135 1.446 9.802.446 14-3l-7-12 1-1a121.436 121.436 0 0 1 13 7l1-1.5c-2.11-2.994-3.444-6.328-4-10 .158-2.15.992-3.983 2.5-5.5a17.834 17.834 0 0 0 4.5 5.5c2.696.69 4.863 2.19 6.5 4.5a80.73 80.73 0 0 0 3.5-12z"/><path style="opacity:1" fill="#e4a31c" d="M41.5 13.5c2.95 2.91 4.616 6.577 5 11 4.967-.82 7.133-3.82 6.5-9a7.253 7.253 0 0 1 2.5-2c1.99 4.578 2.324 9.244 1 14 3.34-.104 6.673-1.104 10-3l1 1c-2.49 3.312-4.157 6.978-5 11 4.177.329 8.01-.671 11.5-3 1.059.13 1.892.63 2.5 1.5-3 1.667-5.333 4-7 7a22.948 22.948 0 0 1-5 2l9 6.5c-13.543-.051-14.377 3.282-2.5 10 .667 1 .667 2 0 3a41.724 41.724 0 0 1-12-5 112.25 112.25 0 0 0 0 14 120.692 120.692 0 0 0-9.5-9c-1.196 1.06-1.863 2.393-2 4 1.773 4.084 1.273 7.751-1.5 11-3.21-3.754-5.377-8.088-6.5-13a120.692 120.692 0 0 0-9.5 9c.077-4.305.244-8.638.5-13-3.854.094-6.52 1.928-8 5.5-1.544 1.187-3.211 1.52-5 1a33.648 33.648 0 0 0 3.5-8.5 19.894 19.894 0 0 0 3.5-4 68.897 68.897 0 0 0-12-.5 63.72 63.72 0 0 0 10-9c-3.11-2.695-6.777-4.028-11-4a6.541 6.541 0 0 1-3-3 65.006 65.006 0 0 0 15-3.5c-1.8-3.629-3.8-7.129-6-10.5l1-.5a45.011 45.011 0 0 0 11 5 181.277 181.277 0 0 0-2.5-15c2.03 2.238 4.53 3.738 7.5 4.5a35.576 35.576 0 0 0 4 4.5 21.845 21.845 0 0 0 3-10z"/><path style="opacity:1" fill="#e5a41c" d="M3.5 85.5c26.241-.328 52.408.005 78.5 1 .5 33.665.667 67.332.5 101-41.347-2.511-67.18-23.845-77.5-64a284.178 284.178 0 0 1-1.5-38z"/><path style="opacity:1" fill="#243165" d="M83.5 85.5h78c3.609 25.72-1.558 49.387-15.5 71-16.058 19.779-36.892 30.112-62.5 31v-102z"/><path style="opacity:1" fill="#fdfdfd" d="M-.5 117.5c7.417 40.751 31.417 65.418 72 74h-72v-74zM165.5 119.5v72h-73c40.205-7.871 64.538-31.871 73-72z"/><path style="opacity:1" fill="#0d0a07" d="M97.5 93.5a796.263 796.263 0 0 0 24.5 23 389.095 389.095 0 0 0 24-23 247.475 247.475 0 0 0 13.5 13 107.985 107.985 0 0 1-8.5 9 20.51 20.51 0 0 0-3-8c-.718-.951-1.551-1.117-2.5-.5a216.136 216.136 0 0 0-17 18l9.5 9.5c2.238-1.809 3.405-4.142 3.5-7 3.496 1.813 6.496 4.48 9 8a36.308 36.308 0 0 0-7 4 44.424 44.424 0 0 0 7 6 6708.16 6708.16 0 0 0-10 9 31.412 31.412 0 0 1-3.5-7 82.22 82.22 0 0 1-4.5 7 26.584 26.584 0 0 1-8-9l6-4a107.985 107.985 0 0 0-8.5-9 107.985 107.985 0 0 0-8.5 9l6 4a25.913 25.913 0 0 1-8 9 82.22 82.22 0 0 1-4.5-7 66.615 66.615 0 0 0-2.5 6c-.502 1.021-1.168 1.188-2 .5a107.107 107.107 0 0 0-9-8.5c2.932-1.3 5.266-3.3 7-6a36.3 36.3 0 0 0-7-4c2.46-3.472 5.46-6.139 9-8 .095 2.858 1.262 5.191 3.5 7l9.5-9.5a216.136 216.136 0 0 0-17-18c-.95-.617-1.782-.451-2.5.5a20.507 20.507 0 0 0-3 8l-8.5-8.5a246.63 246.63 0 0 0 13-13.5z"/><path style="opacity:1" fill="#e0a01d" d="M97.5 95.5a829.64 829.64 0 0 1 24.5 24l24-24 11.5 11.5-5.5 5.5c-.553-4.204-2.72-6.704-6.5-7.5a523.412 523.412 0 0 0-19 19.5 194.412 194.412 0 0 0 11.5 12 34.534 34.534 0 0 0 5.5-6 31.84 31.84 0 0 1 5 4.5c-8.866 2.752-9.199 6.252-1 10.5-1.722 2.92-4.055 4.753-7 5.5a47.02 47.02 0 0 0-3.5-5.5 21.53 21.53 0 0 0-5 6l-5.5-5.5c2.576-.782 4.576-2.282 6-4.5a59.224 59.224 0 0 0-10.5-11 166.24 166.24 0 0 0-10.5 11c1.424 2.218 3.424 3.718 6 4.5l-5.5 5.5a21.53 21.53 0 0 0-5-6 39.447 39.447 0 0 1-4.5 6 25.652 25.652 0 0 1-6-6 44.428 44.428 0 0 0 7-6c-2.213-2.274-4.88-3.774-8-4.5l5.5-5.5c.878 2.715 2.378 5.049 4.5 7a102.102 102.102 0 0 0 12-12 523.412 523.412 0 0 0-19-19.5c-3.78.796-5.947 3.296-6.5 7.5l-5.5-5.5a177.485 177.485 0 0 0 11-11.5z"/></svg>
